X: 7728
T: Colonel McBain
R: reel
M: 4/4
K: Edorian
GEBE GEBG|FDAD FDAF|GEBE GEBc|AGFG E2 EF|
G/F/E BE G/F/E BE|ABAG FADF|GBGD GBdB|AGFD E2:|
G2 GF GBdB|A2 AG FADA|Bded e2 g/f/e|fedf e2 gf|
e2 ed BcdB|ABAG FDAD|G2 GF GBdB|AGFG E2:|

